X: 4124
T: Blue Angel, The
R: hornpipe
M: 4/4
K: Fmajor
A,B,|CFBA GB,EG|A,_A,=A,C FAgf|dBFB fcaB|cfag fedB|
A,_A,=A,C FAgf|c=B_BG E2E2|afcA gBGE|c=B_BA F2:|
|:AB|cfac gbeg|fcAF CFAB|GFEc dcBg|fegd c2AB|
cfac dgbd|cfAF BAGF|EdcB ECDE|c=B_BA F2:|

